Papirus/16x16/actions/window-duplicate.svg

<?xml version="1.0" encoding="UTF-8" standalone="no"?>
<svg xmlns="http://www.w3.org/2000/svg" viewBox="0 0 16 16">
  <defs>
    <style type="text/css" id="current-color-scheme">
      .ColorScheme-Text {
        color:#5c616c;
      }
      </style>
  </defs>
  <path style="fill:currentColor;opacity:1" class="ColorScheme-Text" d="M 2 1 C 2 1 1.9237594 1.0041375 1.8183594 1.0234375 C 1.6141594 1.0536375 1.4597031 1.1268625 1.3457031 1.2265625 C 1.3236031 1.2434625 1.30225 1.26165 1.28125 1.28125 C 1.26165 1.30225 1.2434625 1.3236031 1.2265625 1.3457031 C 1.1268625 1.4597031 1.0536375 1.6141594 1.0234375 1.8183594 C 1.0041375 1.9237594 1 2 1 2 L 1 14 C 1 15 2 15 2 15 L 8 15 L 8 13 L 3 13 L 3 6 L 13 6 L 13 8 L 15 8 L 15 2 C 15 2 14.995563 1.9237594 14.976562 1.8183594 C 14.945562 1.6141594 14.873437 1.4597031 14.773438 1.3457031 C 14.756438 1.3236031 14.73775 1.30225 14.71875 1.28125 C 14.69775 1.26165 14.676297 1.2434625 14.654297 1.2265625 C 14.540297 1.1268625 14.385641 1.0536375 14.181641 1.0234375 C 14.075641 1.0041375 14 1 14 1 L 2 1 z M 9.5 9 C 9.5 9 9.4628562 9.0020187 9.4101562 9.0117188 C 9.3080562 9.0268188 9.2308281 9.0634812 9.1738281 9.1132812 C 9.1627281 9.1217812 9.151125 9.130825 9.140625 9.140625 C 9.130625 9.151125 9.1217813 9.1628281 9.1132812 9.1738281 C 9.0634813 9.2308281 9.0268187 9.3080562 9.0117188 9.4101562 C 9.0017188 9.4628562 9 9.5 9 9.5 L 9 15.5 C 9 16 9.5 16 9.5 16 L 15.5 16 C 15.5 16 16 16 16 15.5 L 16 9.5 C 16 9.5 15.998281 9.4628562 15.988281 9.4101562 C 15.973281 9.3080562 15.936719 9.2308281 15.886719 9.1738281 C 15.878719 9.1628281 15.869375 9.151125 15.859375 9.140625 C 15.849375 9.130825 15.837172 9.1217813 15.826172 9.1132812 C 15.769172 9.0634813 15.691844 9.0268187 15.589844 9.0117188 C 15.536844 9.0020187 15.5 9 15.5 9 L 9.5 9 z M 10 12 L 15 12 L 15 15 L 10 15 L 10 12 z "/>
</svg>

<?xml version="1.0" encoding="UTF-8" standalone="no"?>
<!--Created with Inkscape (http://www.inkscape.org/)-->
<svg id="svg7384" xmlns:rdf="http://www.w3.org/1999/02/22-rdf-syntax-ns#" style="enable-background:new" xmlns="http://www.w3.org/2000/svg" height="16" width="16" version="1.1" xmlns:cc="http://creativecommons.org/ns#" xmlns:dc="http://purl.org/dc/elements/1.1/">
 <metadata id="metadata90">
  <rdf:RDF>
   <cc:Work rdf:about="">
    <dc:format>image/svg+xml</dc:format>
    <dc:type rdf:resource="http://purl.org/dc/dcmitype/StillImage"/>
   </cc:Work>
  </rdf:RDF>
 </metadata>
 <g id="layer12" transform="translate(-585 -41)">
  <path id="path6716-1" opacity="1" fill="#5c616c" style="fill:#5c616c;text-indent:0;block-progression:tb;text-decoration-line:none;enable-background:new;text-transform:none" transform="translate(585 41)" d="m2 1s-0.0762 0.0041-0.1816 0.0234c-0.2042 0.0302-0.3587 0.1035-0.4727 0.2032-0.0221 0.0169-0.0435 0.035-0.0645 0.0546-0.0196 0.021-0.0377 0.0424-0.0546 0.0645-0.0997 0.114-0.173 0.2685-0.2032 0.4727-0.0193 0.1054-0.0234 0.1816-0.0234 0.1816v12c0 1 1 1 1 1h6v-2h-5v-7h10v2h2v-6s-0.004-0.0762-0.023-0.1816c-0.031-0.2042-0.104-0.3587-0.204-0.4727-0.017-0.0221-0.035-0.0435-0.054-0.0645-0.021-0.0196-0.043-0.0377-0.065-0.0546-0.114-0.0997-0.268-0.173-0.472-0.2032-0.106-0.0193-0.182-0.0234-0.182-0.0234h-12zm7.5 8s-0.0371 0.002-0.0898 0.0117c-0.1021 0.0151-0.1794 0.0518-0.2364 0.1016-0.0111 0.0085-0.0227 0.0175-0.0332 0.0273-0.01 0.0105-0.0188 0.0222-0.0273 0.0332-0.0498 0.057-0.0865 0.1343-0.1016 0.2364-0.01 0.0527-0.0117 0.0898-0.0117 0.0898v6c0 0.5 0.5 0.5 0.5 0.5h6s0.5 0 0.5-0.5v-6s-0.002-0.0371-0.012-0.0898c-0.015-0.1021-0.051-0.1794-0.101-0.2364-0.008-0.011-0.018-0.0227-0.028-0.0332-0.01-0.0098-0.022-0.0188-0.033-0.0273-0.057-0.0498-0.134-0.0865-0.236-0.1016-0.053-0.0097-0.09-0.0117-0.09-0.0117h-6zm0.5 3h5v3h-5v-3z"/>
 </g>
</svg>
